packages/amis-editor/src/icons/btn/btn-toolbar.svg

<?xml version="1.0" encoding="UTF-8"?>
<svg width="16px" height="16px" viewBox="0 0 16 16" version="1.1" xmlns="http://www.w3.org/2000/svg" xmlns:xlink="http://www.w3.org/1999/xlink">
    <g id="按钮工具栏" stroke="none" stroke-width="1" fill="none" fill-rule="evenodd">
        <rect id="矩形" stroke="currentColor" stroke-linejoin="round" x="1.5" y="2.5" width="13" height="11"></rect>
        <path d="M4.72904586,10.1180812 C5.12967844,10.1180812 5.44596732,10.0396498 5.66736953,9.88278706 C5.92567211,9.69231087 6.05745915,9.39539211 6.05745915,8.99203076 C6.05745915,8.7231232 5.99420137,8.5046358 5.8729573,8.34777306 C5.74644175,8.18530807 5.56193991,8.07886549 5.31418028,8.02844533 C5.50395361,7.95001395 5.64628361,7.84357138 5.74644175,7.69791311 C5.84659989,7.54105037 5.89931471,7.35057418 5.89931471,7.12648454 C5.89931471,6.82396353 5.79915656,6.58306718 5.60411176,6.40379547 C5.3932525,6.21331928 5.09804955,6.11808118 4.72377438,6.11808118 L3,6.11808118 L3,10.1180812 L4.72904586,10.1180812 Z M4.56035846,7.79875345 L3.61676331,7.79875345 L3.61676331,6.65589631 L4.57090142,6.65589631 C4.82393253,6.65589631 5.00316289,6.70071423 5.11913548,6.79035009 C5.2245651,6.8743837 5.2825514,7.01443972 5.2825514,7.20491591 C5.2825514,7.41219883 5.2245651,7.56345933 5.11913548,7.65869743 C5.00843437,7.74833328 4.82393253,7.79875345 4.56035846,7.79875345 Z M4.63943068,9.58026605 L3.61676331,9.58026605 L3.61676331,8.33656858 L4.65524512,8.33656858 C4.92936215,8.33656858 5.12967844,8.38698874 5.25619399,8.48782908 C5.37743806,8.58866942 5.44069584,8.7511344 5.44069584,8.98082628 C5.44069584,9.20491591 5.35635213,9.36177866 5.18766473,9.462619 C5.0558777,9.54105037 4.87137586,9.58026605 4.63943068,9.58026605 Z M8.19768055,10.1180812 L8.19768055,6.67830527 L9.43120717,6.67830527 L9.43120717,6.11808118 L6.34739062,6.11808118 L6.34739062,6.67830527 L7.58091724,6.67830527 L7.58091724,10.1180812 L8.19768055,10.1180812 Z M10.4960464,10.1180812 L10.4960464,7.19371143 L10.5171323,7.19371143 L12.3990511,10.1180812 L13,10.1180812 L13,6.11808118 L12.3779652,6.11808118 L12.3779652,9.00323524 L12.3568793,9.00323524 L10.4960464,6.11808118 L9.87928308,6.11808118 L9.87928308,10.1180812 L10.4960464,10.1180812 Z" id="BTN" stroke="currentColor" stroke-width="0.15" fill="currentColor" fill-rule="nonzero"></path>
    </g>
</svg>

<svg width="16" height="16" xmlns="http://www.w3.org/2000/svg"><g fill="none" fill-rule="evenodd" stroke="currentColor"><path stroke-linejoin="round" d="M1.5 2.5h13v11h-13z"/><path d="M4.729 10.118c.4 0 .717-.078.938-.235.259-.19.39-.488.39-.891 0-.269-.063-.487-.184-.644-.127-.163-.311-.27-.559-.32a.934.934 0 0 0 .432-.33c.1-.157.153-.347.153-.572 0-.302-.1-.543-.295-.722-.21-.19-.506-.286-.88-.286H3v4h1.729Zm-.169-2.32h-.943V6.657h.954c.253 0 .432.045.548.134.106.084.164.224.164.415 0 .207-.058.358-.164.454-.11.09-.295.14-.559.14Zm.08 1.782H3.616V8.337h1.038c.274 0 .475.05.601.15.121.102.185.264.185.494 0 .224-.085.38-.253.482-.132.078-.317.117-.549.117Zm3.558.538v-3.44H9.43v-.56H6.347v.56h1.234v3.44h.617Zm2.298 0V7.194h.021l1.882 2.924H13v-4h-.622v2.885h-.021l-1.861-2.885h-.617v4h.617Z" stroke-width=".15" fill="currentColor" fill-rule="nonzero"/></g></svg>
